SF_Symbols/mail.stack.fill.svg

<?xml version="1.0" encoding="UTF-8"?>
<svg xmlns="http://www.w3.org/2000/svg" xmlns:xlink="http://www.w3.org/1999/xlink" width="24" height="24" viewBox="0 0 24 24" version="1.1">
<g id="surface1">
<path style=" stroke:none;fill-rule:nonzero;fill:rgb(100%,100%,100%);fill-opacity:1;" d="M 5.457031 12.457031 C 5.234375 12.457031 5.054688 12.386719 4.917969 12.238281 C 4.777344 12.085938 4.707031 11.910156 4.707031 11.707031 C 4.707031 11.5 4.777344 11.324219 4.917969 11.175781 C 5.054688 11.03125 5.234375 10.957031 5.457031 10.957031 L 12.269531 10.957031 C 12.472656 10.957031 12.640625 11.03125 12.78125 11.175781 C 12.925781 11.324219 13 11.5 13 11.707031 C 13 11.910156 12.925781 12.085938 12.78125 12.238281 C 12.640625 12.386719 12.472656 12.457031 12.269531 12.457031 Z M 5.457031 15.269531 C 5.234375 15.269531 5.054688 15.203125 4.917969 15.0625 C 4.777344 14.921875 4.707031 14.75 4.707031 14.542969 C 4.707031 14.332031 4.777344 14.15625 4.917969 14.011719 C 5.054688 13.863281 5.234375 13.792969 5.457031 13.792969 L 10.324219 13.792969 C 10.53125 13.792969 10.703125 13.863281 10.84375 14.011719 C 10.988281 14.15625 11.0625 14.332031 11.0625 14.542969 C 11.0625 14.75 10.988281 14.921875 10.84375 15.0625 C 10.703125 15.203125 10.53125 15.269531 10.324219 15.269531 Z M 17.15625 15.550781 C 16.683594 15.550781 16.257812 15.441406 15.875 15.21875 C 15.492188 14.988281 15.1875 14.683594 14.957031 14.300781 C 14.730469 13.914062 14.613281 13.484375 14.613281 13.019531 C 14.613281 12.554688 14.730469 12.132812 14.957031 11.75 C 15.1875 11.359375 15.492188 11.054688 15.875 10.832031 C 16.257812 10.605469 16.683594 10.488281 17.15625 10.488281 C 17.613281 10.488281 18.035156 10.605469 18.417969 10.832031 C 18.804688 11.054688 19.109375 11.359375 19.332031 11.75 C 19.5625 12.132812 19.675781 12.554688 19.675781 13.019531 C 19.675781 13.484375 19.5625 13.914062 19.332031 14.300781 C 19.109375 14.683594 18.804688 14.988281 18.417969 15.21875 C 18.035156 15.441406 17.613281 15.550781 17.15625 15.550781 Z M 4.457031 23.800781 L 19.53125 23.800781 C 20.578125 23.800781 21.367188 23.539062 21.894531 23.011719 C 22.429688 22.484375 22.699219 21.703125 22.699219 20.667969 L 22.699219 10.1875 C 22.699219 9.152344 22.429688 8.375 21.894531 7.855469 C 21.367188 7.328125 20.578125 7.0625 19.53125 7.0625 L 4.457031 7.0625 C 3.402344 7.0625 2.609375 7.328125 2.082031 7.855469 C 1.554688 8.375 1.292969 9.152344 1.292969 10.1875 L 1.292969 20.667969 C 1.292969 21.707031 1.554688 22.488281 2.082031 23.011719 C 2.609375 23.539062 3.402344 23.800781 4.457031 23.800781 Z M 3.28125 5.386719 L 20.71875 5.386719 C 20.636719 4.914062 20.46875 4.550781 20.21875 4.300781 C 19.976562 4.046875 19.59375 3.917969 19.074219 3.917969 L 4.925781 3.917969 C 4.40625 3.917969 4.019531 4.046875 3.769531 4.300781 C 3.519531 4.550781 3.359375 4.914062 3.28125 5.386719 Z M 5.425781 2.5 L 18.574219 2.5 C 18.539062 2.054688 18.394531 1.722656 18.144531 1.5 C 17.894531 1.269531 17.527344 1.15625 17.042969 1.15625 L 6.949219 1.15625 C 6.46875 1.15625 6.101562 1.269531 5.84375 1.5 C 5.59375 1.722656 5.453125 2.054688 5.425781 2.5 Z M 5.425781 2.5 "/>
</g>
</svg>

<svg xmlns="http://www.w3.org/2000/svg" width="24" height="24"><path style="stroke:none;fill-rule:nonzero;fill:#fff;fill-opacity:1" d="M5.457 12.457a.702.702 0 0 1-.539-.219.767.767 0 0 1-.211-.531c0-.207.07-.383.211-.531a.716.716 0 0 1 .539-.219h6.813c.203 0 .37.074.511.219a.75.75 0 0 1 0 1.063.671.671 0 0 1-.511.218Zm0 2.813c-.223 0-.402-.067-.539-.207a.701.701 0 0 1-.211-.52c0-.211.07-.387.211-.531a.702.702 0 0 1 .539-.219h4.867c.207 0 .38.07.52.219.144.144.219.32.219.531a.688.688 0 0 1-.22.52.698.698 0 0 1-.519.207Zm11.7.28c-.473 0-.9-.109-1.282-.331a2.648 2.648 0 0 1-.918-.918 2.501 2.501 0 0 1-.344-1.281c0-.465.117-.887.344-1.27.23-.39.535-.695.918-.918.387-.23.832-.348 1.281-.344.457 0 .88.117 1.262.344.387.223.691.527.914.918.23.383.344.805.344 1.27 0 .464-.113.894-.344 1.28a2.542 2.542 0 0 1-.914.919c-.383.222-.82.336-1.262.332Zm-12.7 8.25h15.074c1.047 0 1.836-.26 2.364-.788.535-.528.804-1.309.804-2.344v-10.48c0-1.036-.27-1.813-.804-2.333-.528-.527-1.317-.793-2.364-.793H4.457c-1.055 0-1.848.266-2.375.793-.527.52-.789 1.297-.789 2.332v10.481c0 1.039.262 1.82.789 2.344.527.527 1.32.789 2.375.789ZM3.281 5.388H20.72c-.082-.473-.25-.836-.5-1.086-.242-.254-.625-.383-1.145-.383H4.926c-.52 0-.906.129-1.156.383-.25.25-.41.613-.489 1.086ZM5.426 2.5h13.148c-.035-.445-.18-.777-.43-1-.25-.23-.617-.344-1.101-.344H6.949c-.48 0-.847.114-1.105.344-.25.223-.39.555-.418 1Zm0 0"/></svg>
